svgs/regular/tent.svg

<svg xmlns="http://www.w3.org/2000/svg" viewBox="0 0 576 512"><!--! Font Awesome Pro 6.1.1 by @fontawesome - https://fontawesome.com License - https://fontawesome.com/license (Commercial License) Copyright 2022 Fonticons, Inc. --><path d="M274.4 4.243C282.6-1.414 293.4-1.414 301.6 4.243L521.5 155.9C534.1 165.2 543.7 179.9 545.4 196.1L572.1 450.1C575.6 483.2 549.7 512 516.5 512H59.55C26.3 512 .3725 483.2 3.853 450.1L30.59 196.1C32.3 179.9 41.03 165.2 54.49 155.9L274.4 4.243zM524.4 455.2L497.7 201.1C497.4 198.8 496.2 196.7 494.3 195.4L312 69.71V279.3L413.6 464H516.5C521.2 464 524.9 459.9 524.4 455.2H524.4zM264 69.71L81.74 195.4C79.82 196.7 78.57 198.8 78.33 201.1L51.59 455.2C51.09 459.9 54.8 464 59.55 464H264L264 69.71z"/></svg>

<svg xmlns="http://www.w3.org/2000/svg" viewBox="0 0 576 512"><!--! Font Awesome Pro 6.4.2 by @fontawesome - https://fontawesome.com License - https://fontawesome.com/license (Commercial License) Copyright 2023 Fonticons, Inc. --><path d="M274.4 4.2c8.2-5.7 19-5.7 27.3 0L521.5 155.9c13.5 9.3 22.2 24 23.9 40.2l26.7 254c3.5 33.1-22.4 61.9-55.7 61.9H440 264 59.5C26.3 512 .4 483.2 3.9 450.1l26.7-254c1.7-16.3 10.4-31 23.9-40.2L274.4 4.2zM516.5 464c4.7 0 8.5-4.1 8-8.8l-26.7-254c-.2-2.3-1.5-4.4-3.4-5.7L312 69.7V279.3L413.6 464H516.5zM264 69.7L81.7 195.4c-1.9 1.3-3.2 3.4-3.4 5.7l-26.7 254c-.5 4.7 3.2 8.8 8 8.8H264l0-136 0-136 0-122.3z"/></svg>
